X:1
M:2/4
L:1/8
K:D
|: defd | ecdB | AcdF | E2B2 | DEFG | ABAF | GEAF | D2d2 :|

